assets/img/icons_pokemon/dark.svg

<svg width="256" height="256" viewBox="0 0 256 256" fill="none" xmlns="http://www.w3.org/2000/svg">
<g clip-path="url(#clip0_57_787)">
<path d="M128 256C198.692 256 256 198.692 256 128C256 57.3075 198.692 0 128 0C57.3075 0 0 57.3075 0 128C0 198.692 57.3075 256 128 256Z" fill="#4F4747"/>
<path d="M74.46 84.2402C81.95 91.8002 92.21 99.1902 101.5 101.17C100.12 104.01 99.62 106.24 99.13 109.4C96.35 127.22 97.94 144.03 111.28 157.7C121.34 168.01 134.73 167.98 144.79 157.61C158.08 143.9 159.7 127.1 156.8 109.28C156.37 106.66 154.87 100.13 154.92 100.04C155.02 99.8602 154.92 99.9602 155.92 99.6602C162.4 98.1502 174.54 91.6702 181.97 84.1602C197.33 96.0402 205.62 121.07 196.15 141.01C183.21 168.25 152.99 192.77 114.72 184.97C85.57 179.03 65.68 160.48 56.77 131.76C52.63 118.43 58.44 95.7802 74.47 84.2402H74.46Z" fill="white"/>
<path d="M139.92 124.38C139.65 129.68 139.13 136.99 133.87 142.83C129.75 147.4 125.91 147.66 122.21 142.8C114.78 133.05 114.75 121.91 117.73 110.61C119.69 103.19 120.59 102.71 127.99 102.71C135.4 102.71 135.96 103.29 138.37 110.56C139.65 114.44 139.95 118.34 139.93 124.39L139.92 124.38Z" fill="white"/>
</g>
<defs>
<clipPath id="clip0_57_787">
<rect width="256" height="256" fill="white"/>
</clipPath>
</defs>
</svg>

<?xml version="1.0" encoding="UTF-8"?>
<svg id="Layer_1" data-name="Layer 1" xmlns="http://www.w3.org/2000/svg" viewBox="0 0 256 256">
  <defs>
    <style>
      .cls-1 {
        fill: #fff;
      }

      .cls-2 {
        fill: #4f4747;
      }
    </style>
  </defs>
  <circle class="cls-2" cx="128" cy="128" r="128"/>
  <path class="cls-1" d="M74.46,84.24c7.49,7.56,17.75,14.95,27.04,16.93-1.38,2.84-1.88,5.07-2.37,8.23-2.78,17.82-1.19,34.63,12.15,48.3,10.06,10.31,23.45,10.28,33.51-.09,13.29-13.71,14.91-30.51,12.01-48.33-.43-2.62-1.93-9.15-1.88-9.24,.1-.18,0-.08,1-.38,6.48-1.51,18.62-7.99,26.05-15.5,15.36,11.88,23.65,36.91,14.18,56.85-12.94,27.24-43.16,51.76-81.43,43.96-29.15-5.94-49.04-24.49-57.95-53.21-4.14-13.33,1.67-35.98,17.7-47.52Z"/>
  <path class="cls-1" d="M139.92,124.38c-.27,5.3-.79,12.61-6.05,18.45-4.12,4.57-7.96,4.83-11.66-.03-7.43-9.75-7.46-20.89-4.48-32.19,1.96-7.42,2.86-7.9,10.26-7.9,7.41,0,7.97,.58,10.38,7.85,1.28,3.88,1.58,7.78,1.56,13.83Z"/>
</svg>
